www/static/images/social-x-formerly-twitter-blue.svg

<svg width="40" height="40" viewBox="0 0 40 40" fill="none" xmlns="http://www.w3.org/2000/svg">
<g clip-path="url(#clip0_1_47)">
<rect width="40" height="40" fill="white"/>
<circle cx="20" cy="20" r="20" fill="#126F9A"/>
<path d="M18.9392 22.8889L13.0398 29.625H9.77206L17.4129 20.8965L18.9392 22.8889Z" fill="white"/>
<path d="M20.7226 16.5542L26.1243 10.375H29.3899L22.2351 18.5576L20.7226 16.5542Z" fill="white"/>
<path d="M30.648 29.625H24.0762L9.35199 10.375H16.0902L30.648 29.625ZM24.9775 27.6704H26.787L15.1071 12.2271H13.1656L24.9775 27.6704Z" fill="white"/>
</g>
<defs>
<clipPath id="clip0_1_47">
<rect width="40" height="40" fill="white"/>
</clipPath>
</defs>
</svg>

<svg width="40" height="40" fill="none" xmlns="http://www.w3.org/2000/svg"><g clip-path="url(#a)"><path d="M0 0h40v40H0z"/><circle cx="20" cy="20" r="20" fill="#126F9A"/><path d="m18.94 22.889-5.9 6.736H9.772l7.64-8.729 1.527 1.993ZM20.723 16.554l5.401-6.179h3.266l-7.155 8.183-1.512-2.004Z" fill="#fff"/><path d="M30.648 29.625h-6.572L9.352 10.375h6.738l14.558 19.25Zm-5.67-1.955h1.809l-11.68-15.443h-1.941L24.977 27.67Z" fill="#fff"/></g><defs><clipPath id="a"><path d="M0 0h40v40H0z"/></clipPath></defs></svg>
